;Sliced by ideaMaker 5.0.6.8380, 2024-07-15 19:36:16 UTC-0300
;Slicer Version: 5.0.6.8380
;Dimension: 305.000 305.000 605.000 0.400 0.400
;Plate Shape: 0
;Origin Center: 0
;Extruder Offset #1: 0.000 0.000
;Filament Diameter #1: 1.750
;Filament Diameter #2: 1.750
;Filament Compensation #1: 90.00
;Filament Compensation #2: 90.00
;Filament Density #1: 1240.00
;Filament Density #2: 1240.00
;Filament Type #1: PLA
;Filament Type #2: PLA
;Filament Name #1: [Raise3D] Premium PLA 1.75mm
;Filament Name #2: [Raise3D] Premium PLA 1.75mm
;Firmware: Raise3D Pro2
;Bounding Box: 124.879 179.779 95.538 209.138 0.000 24.320
;Model Gap: 0.150
M221 T0 S90.00
M140 S60.00
M104 T0 S205.00
M109 T0 S205.00
T0
M190 S60.00
G21
G90
M82
M107
G28 X0 Y0
G28 Z0
G1 Z15.0 F300
G92 E0
G1 F140 E29
G1 X20 Y0 F140 E30
G92 E0
G1 F6000.0
M117 Printing...
M1001
;TOTAL_NUM: 1
;PRINTING_TIME: 0
;REMAINING_TIME: 10007
M106 S0
;LAYER:-2
;Z:0.500
;HEIGHT:0.500
;PRINTING: NON-OBJECT
;PRINTING_ID: -1
G0 F6000 X131.570 Y105.452
G0 F300 Z0.500
;TYPE:RAFT
;WIDTH:0.800
G1 F480 X131.947 Y105.053 E0.0913
G1 X132.346 Y104.718 E0.1779
G1 X132.691 Y104.394 E0.2566
G1 X133.084 Y103.922 E0.3588
G1 X133.453 Y103.558 E0.4450
G1 X133.720 Y103.342 E0.5021
G1 X134.251 Y103.002 E0.6069
G1 X135.000 Y102.458 E0.7609
G1 X135.410 Y102.112 E0.8501
G1 X135.724 Y101.803 E0.9234
G1 X136.142 Y101.442 E1.0152
G1 X136.562 Y101.152 E1.1001
G1 X136.952 Y100.935 E1.1743
G1 X137.510 Y100.582 E1.2841
G1 X138.052 Y100.158 E1.3986
G1 X138.365 Y99.946 E1.4614
G1 X138.926 Y99.638 E1.5679
G1 X139.460 Y99.298 E1.6731
G1 X140.089 Y98.864 E1.8002
G1 X140.593 Y98.606 E1.8944
G1 X141.571 Y98.221 E2.0692
G1 X143.380 Y97.321 E2.4052
G1 X143.899 Y97.109 E2.4984
G1 X144.403 Y96.968 E2.5855
G1 X144.750 Y96.905 E2.6441
G1 X145.723 Y96.804 E2.8068
G1 X146.473 Y96.652 E2.9340
G1 X147.381 Y96.432 E3.0894
G1 X148.302 Y96.247 E3.2456
G1 X148.743 Y96.180 E3.3198
G1 X150.847 Y95.967 E3.6715
G1 X151.412 Y95.938 E3.7656
G1 X154.274 Y95.940 E4.2415
G1 X154.854 Y95.969 E4.3381
G1 X156.903 Y96.177 E4.6806
G1 X157.317 Y96.240 E4.7503
G1 X158.562 Y96.496 E4.9616
G1 X159.425 Y96.712 E5.1096
G1 X160.539 Y97.080 E5.3047
G1 X161.058 Y97.234 E5.3947
G1 X161.670 Y97.386 E5.4996
G1 X162.366 Y97.659 E5.6239
G1 X162.700 Y97.823 E5.6858
G1 X163.854 Y98.301 E5.8935
G1 X164.683 Y98.715 E6.0476
G1 X165.103 Y98.953 E6.1279
G1 X165.679 Y99.314 E6.2409
G1 X166.610 Y99.790 E6.4148
G1 X167.129 Y100.105 E6.5158
G1 X169.087 Y101.580 E6.9235
G1 X169.637 Y102.102 E7.0496
G1 X170.084 Y102.473 E7.1462
G1 X170.461 Y102.757 E7.2247
G1 X170.786 Y103.050 E7.2974
G1 X173.351 Y105.615 E7.9007
G1 X173.700 Y106.002 E7.9873
G1 X175.173 Y107.966 E8.3956
G1 X175.441 Y108.417 E8.4829
G1 X175.674 Y108.888 E8.5702
G1 X176.237 Y109.809 E8.7498
G1 X177.342 Y112.021 E9.1610
G1 X177.734 Y113.004 E9.3370
G1 X178.004 Y113.561 E9.4399
G1 X178.180 Y114.057 E9.5274
G1 X178.269 Y114.407 E9.5875
G1 X178.323 Y114.742 E9.6439
G1 X178.518 Y115.633 E9.7956
G1 X178.643 Y116.062 E9.8699
G1 X178.979 Y117.051 E10.0436
G1 X179.068 Y117.403 E10.1040
G1 X179.150 Y117.940 E10.1943
G1 X179.206 Y118.903 E10.3547
G1 X179.318 Y119.469 E10.4507
G1 X179.372 Y119.972 E10.5348
G1 X179.379 Y125.434 E11.4432
G1 X179.354 Y125.915 E11.5232
G1 X179.191 Y126.947 E11.6970
G1 X179.177 Y127.515 E11.7915
G1 X179.134 Y128.090 E11.8874
G1 X178.855 Y129.532 E12.1316
G1 X178.678 Y130.207 E12.2477
G1 X178.458 Y131.323 E12.4368
G1 X178.193 Y132.387 E12.6192
G1 X178.057 Y133.126 E12.7441
G1 X177.876 Y133.814 E12.8625
G1 X177.674 Y135.042 E13.0694
G1 X177.435 Y136.219 E13.2691
G1 X177.276 Y137.236 E13.4403
G1 X176.790 Y139.601 E13.8419
G1 X176.658 Y140.321 E13.9636
G1 X176.277 Y141.814 E14.2198
G1 X176.058 Y142.923 E14.4078
G1 X175.631 Y144.631 E14.7006
G1 X175.524 Y145.356 E14.8225
G1 X175.226 Y146.857 E15.0770
G1 X175.057 Y147.928 E15.2573
G1 X174.590 Y150.201 E15.6432
G1 X174.457 Y150.927 E15.7659
G1 X174.278 Y151.607 E15.8829
G1 X174.058 Y152.723 E16.0720
G1 X173.793 Y153.787 E16.2544
G1 X173.657 Y154.526 E16.3793
G1 X173.476 Y155.214 E16.4976
G1 X173.273 Y156.450 E16.7059
G1 X172.590 Y159.802 E17.2748
G1 X172.456 Y160.532 E17.3983
G1 X172.220 Y161.289 E17.5301
G1 X171.992 Y162.191 E17.6848
G1 X171.826 Y163.057 E17.8315
G1 X171.641 Y164.200 E18.0240
G1 X171.560 Y164.736 E18.1142
G1 X171.523 Y165.157 E18.1845
G1 X171.026 Y167.657 E18.6084
G1 X170.857 Y168.727 E18.7885
G1 X170.614 Y169.704 E18.9559
G1 X170.251 Y170.813 E19.1500
G1 X169.991 Y171.997 E19.3516
G1 X169.826 Y172.857 E19.4972
G1 X169.457 Y175.124 E19.8792
G1 X169.277 Y175.811 E19.9973
G1 X169.058 Y176.924 E20.1859
G1 X168.836 Y177.824 E20.3401
G1 X168.754 Y178.924 E20.5235
G1 X168.676 Y179.436 E20.6096
G1 X167.991 Y182.800 E21.1806
G1 X167.826 Y183.658 E21.3259
G1 X167.657 Y184.728 E21.5060
G1 X166.790 Y189.002 E22.2312
G1 X166.658 Y189.721 E22.3528
G1 X166.277 Y191.214 E22.6091
G1 X166.056 Y192.334 E22.7989
G1 X165.675 Y193.820 E23.0540
G1 X165.473 Y195.050 E23.2613
G1 X164.790 Y198.402 E23.8302
G1 X164.655 Y199.136 E23.9543
G1 X164.360 Y200.150 E24.1299
G1 X164.258 Y200.714 E24.2253
G1 X164.118 Y201.211 E24.3111
G1 X163.839 Y201.862 E24.4289
G1 X163.346 Y202.774 E24.6013
G1 X163.119 Y203.156 E24.6752
G1 X162.830 Y203.545 E24.7558
G1 X162.557 Y203.852 E24.8241
G1 X160.401 Y206.009 E25.3313
G1 X160.045 Y206.329 E25.4109
G1 X158.767 Y207.289 E25.6767
G1 X158.297 Y207.560 E25.7669
G1 X157.627 Y207.843 E25.8879
G1 X156.917 Y208.079 E26.0123
G1 X155.952 Y208.473 E26.1857
G1 X155.508 Y208.602 E26.2626
G1 X155.037 Y208.688 E26.3422
G1 X154.335 Y208.738 E26.4592
G1 X150.952 Y208.738 E27.0218
G1 X150.467 Y208.713 E27.1026
G1 X149.793 Y208.600 E27.2162
G1 X148.805 Y208.297 E27.3881
G1 X147.100 Y207.620 E27.6932
G1 X146.511 Y207.328 E27.8025
G1 X145.066 Y206.463 E28.0826
G1 X144.510 Y206.045 E28.1982
G1 X144.240 Y205.793 E28.2597
G1 X142.390 Y203.927 E28.6966
G1 X142.139 Y203.644 E28.7595
G1 X141.824 Y203.212 E28.8485
G1 X141.499 Y202.616 E28.9613
G1 X141.055 Y201.517 E29.1585
G1 X140.776 Y200.705 E29.3012
G1 X140.461 Y199.934 E29.4398
G1 X140.279 Y199.423 E29.5300
G1 X140.156 Y198.895 E29.6201
G1 X140.033 Y198.047 E29.7626
G1 X139.965 Y197.756 E29.8123
G1 X139.894 Y197.313 E29.8869
G1 X139.762 Y196.739 E29.9849
G1 X139.694 Y196.312 E30.0568
G1 X139.562 Y195.739 E30.1546
G1 X139.494 Y195.312 E30.2265
G1 X139.361 Y194.736 E30.3248
G1 X139.294 Y194.313 E30.3960
G1 X139.166 Y193.755 E30.4912
G1 X139.091 Y193.186 E30.5867
G1 X138.893 Y192.108 E30.7689
G1 X138.762 Y191.538 E30.8662
G1 X138.694 Y191.116 E30.9373
G1 X138.364 Y189.552 E31.2031
G1 X138.294 Y189.112 E31.2772
G1 X138.162 Y188.539 E31.3750
G1 X138.057 Y187.943 E31.4756
G1 X137.649 Y186.311 E31.7554
G1 X137.562 Y185.938 E31.8191
G1 X137.458 Y185.343 E31.9195
G1 X136.965 Y183.351 E32.2608
G1 X136.877 Y182.596 E32.3872
G1 X136.739 Y181.809 E32.5201
G1 X136.692 Y181.387 E32.5907
G1 X136.535 Y180.582 E32.7271
G1 X136.430 Y179.834 E32.8527
G1 X136.255 Y178.970 E32.9993
G1 X136.079 Y178.427 E33.0942
G1 X135.765 Y177.153 E33.3124
G1 X135.679 Y176.426 E33.4342
G1 X135.590 Y175.874 E33.5271
G1 X135.365 Y174.948 E33.6856
G1 X135.291 Y174.384 E33.7802
G1 X135.135 Y173.582 E33.9161
G1 X135.030 Y172.828 E34.0427
G1 X134.964 Y172.548 E34.0905
G1 X134.894 Y172.112 E34.1640
G1 X134.762 Y171.539 E34.2617
G1 X134.694 Y171.112 E34.3337
G1 X134.562 Y170.539 E34.4314
G1 X134.494 Y170.112 E34.5033
G1 X134.362 Y169.539 E34.6011
G1 X134.294 Y169.113 E34.6729
G1 X134.165 Y168.551 E34.7688
G1 X134.029 Y167.626 E34.9242
G1 X133.964 Y167.348 E34.9717
G1 X133.894 Y166.912 E35.0452
G1 X133.762 Y166.339 E35.1429
G1 X133.694 Y165.912 E35.2149
G1 X133.539 Y165.241 E35.3294
G1 X133.415 Y164.814 E35.4033
G1 X133.078 Y163.822 E35.5776
G1 X132.990 Y163.471 E35.6377
G1 X132.935 Y163.135 E35.6944
G1 X132.761 Y162.334 E35.8307
G1 X132.694 Y161.912 E35.9017
G1 X132.562 Y161.339 E35.9995
G1 X132.494 Y160.913 E36.0712
G1 X132.366 Y160.355 E36.1665
G1 X132.291 Y159.786 E36.2619
G1 X132.093 Y158.708 E36.4442
G1 X131.962 Y158.138 E36.5414
G1 X131.894 Y157.716 E36.6125
G1 X131.563 Y156.149 E36.8789
G1 X131.494 Y155.713 E36.9523
G1 X131.362 Y155.139 E37.0502
G1 X131.258 Y154.544 E37.1507
G1 X130.965 Y153.354 E37.3545
G1 X130.858 Y152.744 E37.4575
G1 X130.565 Y151.554 E37.6613
G1 X130.458 Y150.944 E37.7643
G1 X130.164 Y149.743 E37.9699
G1 X130.030 Y148.832 E38.1230
G1 X129.736 Y147.386 E38.3684
G1 X129.630 Y146.627 E38.4959
G1 X129.564 Y146.348 E38.5435
G1 X129.494 Y145.912 E38.6170
G1 X129.362 Y145.339 E38.7148
G1 X129.294 Y144.912 E38.7867
G1 X129.162 Y144.339 E38.8845
G1 X129.058 Y143.743 E38.9851
G1 X128.564 Y141.750 E39.3265
G1 X128.458 Y141.145 E39.4287
G1 X127.987 Y139.260 E39.7518
G1 X127.834 Y138.251 E39.9215
G1 X127.536 Y136.786 E40.1701
G1 X127.430 Y136.027 E40.2976
G1 X127.364 Y135.748 E40.3453
G1 X127.294 Y135.312 E40.4187
G1 X127.161 Y134.736 E40.5170
G1 X127.094 Y134.313 E40.5882
G1 X126.962 Y133.739 E40.6862
G1 X126.858 Y133.144 E40.7866
G1 X126.565 Y131.954 E40.9904
G1 X126.458 Y131.344 E41.0934
G1 X126.165 Y130.154 E41.2972
G1 X126.058 Y129.544 E41.4002
G1 X125.765 Y128.346 E41.6053
G1 X125.686 Y127.701 E41.7134
G1 X125.679 Y127.216 E41.7940
G1 X125.644 Y126.742 E41.8731
G1 X125.363 Y125.338 E42.1112
G1 X125.284 Y124.530 E42.2462
G1 X125.279 Y122.242 E42.6267
G1 X125.304 Y121.761 E42.7068
G1 X125.467 Y120.732 E42.8801
G1 X125.505 Y119.746 E43.0442
G1 X125.582 Y119.241 E43.1291
G1 X125.777 Y118.262 E43.2951
G1 X125.970 Y117.525 E43.4218
G1 X126.104 Y116.899 E43.5283
G1 X126.442 Y115.184 E43.8190
G1 X126.600 Y114.692 E43.9049
G1 X126.791 Y114.254 E43.9844
G1 X127.161 Y113.001 E44.2016
G1 X127.564 Y112.054 E44.3728
G1 X127.542 Y112.045 E44.3767
G1 X127.640 Y111.797 E44.4211
G1 X127.865 Y111.330 E44.5073
G1 X128.061 Y111.006 E44.5703
G1 X128.413 Y110.486 E44.6747
G1 X128.867 Y109.527 E44.8512
G1 X129.057 Y109.212 E44.9123
G1 X129.366 Y108.799 E44.9981
G1 X129.720 Y108.219 E45.1111
G1 X130.101 Y107.542 E45.2403
G1 X130.764 Y106.658 E45.4241
G1 X131.260 Y105.862 E45.5800
G1 X131.570 Y105.452 E45.6655
G0 F6000 X127.260 Y113.937
G1 F480 X127.260 Y133.353 E48.8944
G0 F6000 X129.684 Y145.073
G1 F480 X129.684 Y108.970 E54.8984
G0 F6000 X132.108 Y105.407
G1 F480 X132.108 Y156.987 E63.4761
G0 F6000 X134.532 Y168.538
G1 F480 X134.532 Y103.243 E74.3347
G0 F6000 X136.956 Y101.344
G1 F480 X136.956 Y180.856 E87.5576
G0 F6000 X139.380 Y192.764
G1 F480 X139.380 Y99.775 E103.0218
G0 F6000 X141.804 Y98.507
G1 F480 X141.804 Y202.409 E120.3008
G0 F6000 X144.228 Y205.255
G1 F480 X144.228 Y97.390 E138.2388
G0 F6000 X146.652 Y96.979
G1 F480 X146.652 Y206.993 E156.5342
G0 F6000 X149.076 Y208.004
G1 F480 X149.076 Y96.507 E175.0762
G0 F6000 X151.500 Y96.299
G1 F480 X151.500 Y208.378 E193.7150
G0 F6000 X153.924 Y208.378
G1 F480 X153.924 Y96.300 E212.3537
G0 F6000 X156.348 Y96.483
G1 F480 X156.348 Y207.924 E230.8864
G0 F6000 X158.772 Y206.835
G1 F480 X158.772 Y96.920 E249.1653
G0 F6000 X161.196 Y97.640
G1 F480 X161.196 Y204.705 E266.9703
G0 F6000 X163.620 Y201.457
G1 F480 X163.620 Y98.595 E284.0763
G0 F6000 X166.044 Y99.906
G1 F480 X166.044 Y190.673 E299.1709
G0 F6000 X168.468 Y177.920
G1 F480 X168.468 Y101.564 E311.8690
G0 F6000 X170.892 Y103.665
G1 F480 X170.892 Y166.485 E322.3160
G0 F6000 X173.316 Y154.395
G1 F480 X173.316 Y106.114 E330.3452
G0 F6000 X175.740 Y109.687
G1 F480 X175.740 Y142.678 E335.8316
G0 F6000 X178.164 Y130.956
G1 F480 X178.164 Y115.701 E338.3685
;PRINTING_TIME: 260
;REMAINING_TIME: 9748
M106 S255
;LAYER:-2
;Z:1.000
;HEIGHT:0.500
;PRINTING: NON-OBJECT
;PRINTING_ID: -1
G0 F300 Z1.000
G0 F6000 X178.518 Y115.633
;TYPE:RAFT
;WIDTH:0.800
G1 F960 X178.643 Y116.062 E338.4428
G1 X178.979 Y117.051 E338.6165
G1 X179.068 Y117.403 E338.6769
G1 X179.150 Y117.940 E338.7672
G1 X179.206 Y118.903 E338.9277
G1 X179.318 Y119.469 E339.0236
G1 X179.372 Y119.972 E339.1077
G1 X179.379 Y125.434 E340.0161
G1 X179.354 Y125.915 E340.0962
G1 X179.191 Y126.947 E340.2699
G1 X179.177 Y127.515 E340.3644
G1 X179.134 Y128.090 E340.4603
G1 X178.855 Y129.532 E340.7045
G1 X178.678 Y130.207 E340.8206
G1 X178.458 Y131.323 E341.0098
G1 X178.193 Y132.387 E341.1921
G1 X178.057 Y133.126 E341.3171
G1 X177.876 Y133.814 E341.4354
G1 X177.674 Y135.042 E341.6423
G1 X177.435 Y136.219 E341.8421
G1 X177.276 Y137.236 E342.0132
G1 X176.790 Y139.601 E342.4148
G1 X176.658 Y140.321 E342.5365
G1 X176.277 Y141.814 E342.7927
G1 X176.058 Y142.923 E342.9807
G1 X175.631 Y144.631 E343.2735
G1 X175.524 Y145.356 E343.3954
G1 X175.226 Y146.857 E343.6499
G1 X175.057 Y147.928 E343.8302
G1 X174.590 Y150.201 E344.2161
G1 X174.457 Y150.927 E344.3388
G1 X174.278 Y151.607 E344.4558
G1 X174.058 Y152.723 E344.6449
G1 X173.793 Y153.787 E344.8273
G1 X173.657 Y154.526 E344.9522
G1 X173.476 Y155.214 E345.0706
G1 X173.273 Y156.450 E345.2789
G1 X172.590 Y159.802 E345.8477
G1 X172.456 Y160.532 E345.9712
G1 X172.220 Y161.289 E346.1030
G1 X171.992 Y162.191 E346.2578
G1 X171.826 Y163.057 E346.4044
G1 X171.641 Y164.200 E346.5970
G1 X171.560 Y164.736 E346.6871
G1 X171.523 Y165.157 E346.7574
G1 X171.026 Y167.657 E347.1813
G1 X170.857 Y168.727 E347.3614
G1 X170.614 Y169.704 E347.5288
G1 X170.251 Y170.813 E347.7229
G1 X169.991 Y171.997 E347.9245
G1 X169.826 Y172.857 E348.0701
G1 X169.457 Y175.124 E348.4521
G1 X169.277 Y175.811 E348.5702
G1 X169.058 Y176.924 E348.7588
G1 X168.836 Y177.824 E348.9130
G1 X168.754 Y178.924 E349.0964
G1 X168.676 Y179.436 E349.1826
G1 X167.991 Y182.800 E349.7535
G1 X167.826 Y183.658 E349.8988
G1 X167.657 Y184.728 E350.0789
G1 X166.790 Y189.002 E350.8042
G1 X166.658 Y189.721 E350.9257
G1 X166.277 Y191.214 E351.1820
G1 X166.056 Y192.334 E351.3718
G1 X165.675 Y193.820 E351.6269
G1 X165.473 Y195.050 E351.8342
G1 X164.790 Y198.402 E352.4031
G1 X164.655 Y199.136 E352.5272
G1 X164.360 Y200.150 E352.7029
G1 X164.258 Y200.714 E352.7982
G1 X164.118 Y201.211 E352.8840
G1 X163.839 Y201.862 E353.0018
G1 X163.346 Y202.774 E353.1742
G1 X163.119 Y203.156 E353.2481
G1 X162.830 Y203.545 E353.3287
G1 X162.557 Y203.852 E353.3970
G1 X160.401 Y206.009 E353.9042
G1 X160.045 Y206.329 E353.9838
G1 X158.767 Y207.289 E354.2496
G1 X158.297 Y207.560 E354.3399
G1 X157.627 Y207.843 E354.4608
G1 X156.917 Y208.079 E354.5852
G1 X155.952 Y208.473 E354.7586
G1 X155.508 Y208.602 E354.8355
G1 X155.037 Y208.688 E354.9151
G1 X154.335 Y208.738 E355.0321
G1 X150.952 Y208.738 E355.5947
G1 X150.467 Y208.713 E355.6755
G1 X149.793 Y208.600 E355.7891
G1 X148.805 Y208.297 E355.9610
G1 X147.100 Y207.620 E356.2661
G1 X146.511 Y207.328 E356.3754
G1 X145.066 Y206.463 E356.6555
G1 X144.510 Y206.045 E356.7712
G1 X144.240 Y205.793 E356.8326
G1 X142.390 Y203.927 E357.2696
G1 X142.139 Y203.644 E357.3325
G1 X141.824 Y203.212 E357.4214
G1 X141.499 Y202.616 E357.5343
G1 X141.055 Y201.517 E357.7314
G1 X140.776 Y200.705 E357.8742
G1 X140.461 Y199.934 E358.0127
G1 X140.279 Y199.423 E358.1029
G1 X140.156 Y198.895 E358.1930
G1 X140.033 Y198.047 E358.3355
G1 X139.965 Y197.756 E358.3852
G1 X139.894 Y197.313 E358.4598
G1 X139.762 Y196.739 E358.5578
G1 X139.694 Y196.312 E358.6297
G1 X139.562 Y195.739 E358.7275
G1 X139.494 Y195.312 E358.7994
G1 X139.361 Y194.736 E358.8977
G1 X139.294 Y194.313 E358.9689
G1 X139.166 Y193.755 E359.0641
G1 X139.091 Y193.186 E359.1596
G1 X138.893 Y192.108 E359.3418
G1 X138.762 Y191.538 E359.4391
G1 X138.694 Y191.116 E359.5102
G1 X138.364 Y189.552 E359.7760
G1 X138.294 Y189.112 E359.8501
G1 X138.162 Y188.539 E359.9479
G1 X138.057 Y187.943 E360.0485
G1 X137.649 Y186.311 E360.3283
G1 X137.562 Y185.938 E360.3920
G1 X137.458 Y185.343 E360.4924
G1 X136.965 Y183.351 E360.8337
G1 X136.877 Y182.596 E360.9601
G1 X136.739 Y181.809 E361.0930
G1 X136.692 Y181.387 E361.1636
G1 X136.535 Y180.582 E361.3000
G1 X136.430 Y179.834 E361.4256
G1 X136.255 Y178.970 E361.5722
G1 X136.079 Y178.427 E361.6671
G1 X135.765 Y177.153 E361.8853
G1 X135.679 Y176.426 E362.0071
G1 X135.590 Y175.874 E362.1001
G1 X135.365 Y174.948 E362.2585
G1 X135.291 Y174.384 E362.3531
G1 X135.135 Y173.582 E362.4890
G1 X135.030 Y172.828 E362.6156
G1 X134.964 Y172.548 E362.6634
G1 X134.894 Y172.112 E362.7369
G1 X134.762 Y171.539 E362.8347
G1 X134.694 Y171.112 E362.9066
